X:5
T:Mae'r Flwyddyn yn Marw - The Year is Ended
M:3/4
L:1/4
Q:100
C:Trad.
R:New Years Carol
K:D
F/2G/2 | A F B | A G F | E D E | F2 F/2G/2 | A F B | A G F | E D C | D2 D/2E/2|
F F F | E E F | G G E | F2 F/2E/2 | D F A | A G F | E D C | D2 ||
